svgs/regular/box-ballot.svg

<svg xmlns="http://www.w3.org/2000/svg" viewBox="0 0 576 512"><!--! Font Awesome Pro 6.6.0 by @fontawesome - https://fontawesome.com License - https://fontawesome.com/license (Commercial License) Copyright 2024 Fonticons, Inc. --><path d="M176 208l224 0 0-160L176 48l0 160zM128 32c0-17.7 14.3-32 32-32L416 0c17.7 0 32 14.3 32 32l0 192c0 17.7-14.3 32-32 32l-256 0c-17.7 0-32-14.3-32-32l0-192zM48 160l48 0 0 48-48 0 0 112 480 0 0-112-48 0 0-48 48 0c26.5 0 48 21.5 48 48l0 112 0 24 0 24 0 96c0 26.5-21.5 48-48 48L48 512c-26.5 0-48-21.5-48-48l0-96 0-24 0-24L0 208c0-26.5 21.5-48 48-48zM528 368L48 368l0 96 480 0 0-96z"/></svg>

<svg xmlns="http://www.w3.org/2000/svg" viewBox="0 0 576 512"><!--! Font Awesome Pro 6.4.0 by @fontawesome - https://fontawesome.com License - https://fontawesome.com/license (Commercial License) Copyright 2023 Fonticons, Inc. --><path d="M176 208H400V48H176V208zM128 32c0-17.7 14.3-32 32-32H416c17.7 0 32 14.3 32 32V224c0 17.7-14.3 32-32 32H160c-17.7 0-32-14.3-32-32V32zM48 160H96v48H48V320H528V208H480V160h48c26.5 0 48 21.5 48 48V320v24 24 96c0 26.5-21.5 48-48 48H48c-26.5 0-48-21.5-48-48V368 344 320 208c0-26.5 21.5-48 48-48zM528 368H48l0 96H528V368z"/></svg>
